public/icon/icon-warning.svg

<svg width="39" height="38" viewBox="0 0 39 38" fill="none" xmlns="http://www.w3.org/2000/svg">
<path d="M19.5294 9.83317C19.0289 9.83317 18.5489 10.0263 18.1949 10.3701C17.841 10.714 17.6422 11.1803 17.6422 11.6665V18.9998C17.6422 19.4861 17.841 19.9524 18.1949 20.2962C18.5489 20.64 19.0289 20.8332 19.5294 20.8332C20.0299 20.8332 20.51 20.64 20.8639 20.2962C21.2178 19.9524 21.4167 19.4861 21.4167 18.9998V11.6665C21.4167 11.1803 21.2178 10.714 20.8639 10.3701C20.51 10.0263 20.0299 9.83317 19.5294 9.83317ZM21.2657 25.6365C21.2244 25.5197 21.1673 25.4087 21.0958 25.3065L20.8694 25.0315C20.604 24.7771 20.267 24.6048 19.9009 24.5363C19.5347 24.4678 19.1559 24.5061 18.8123 24.6465C18.5836 24.7393 18.3729 24.8696 18.1895 25.0315C18.0146 25.2028 17.8762 25.406 17.7823 25.6293C17.6883 25.8527 17.6407 26.0919 17.6422 26.3332C17.6451 26.5727 17.6964 26.8094 17.7931 27.0298C17.8779 27.2573 18.0131 27.464 18.1892 27.6351C18.3654 27.8061 18.5781 27.9375 18.8123 28.0198C19.0382 28.1168 19.2824 28.1669 19.5294 28.1669C19.7764 28.1669 20.0207 28.1168 20.2466 28.0198C20.4808 27.9375 20.6935 27.8061 20.8696 27.6351C21.0457 27.464 21.1809 27.2573 21.2657 27.0298C21.3624 26.8094 21.4137 26.5727 21.4167 26.3332C21.4259 26.2111 21.4259 26.0886 21.4167 25.9665C21.3842 25.8496 21.3332 25.7383 21.2657 25.6365V25.6365ZM19.5294 0.666504C15.7968 0.666504 12.148 1.74174 9.04439 3.75623C5.94082 5.77072 3.52187 8.634 2.09346 11.984C0.665038 15.334 0.291298 19.0202 1.0195 22.5765C1.7477 26.1328 3.54514 29.3995 6.18451 31.9635C8.82388 34.5274 12.1867 36.2735 15.8476 36.9809C19.5085 37.6883 23.3031 37.3252 26.7516 35.9376C30.2001 34.55 33.1476 32.2002 35.2214 29.1853C37.2951 26.1704 38.402 22.6258 38.402 18.9998C38.402 16.5923 37.9138 14.2083 36.9654 11.984C36.0169 9.75967 34.6268 7.73862 32.8743 6.03621C31.1218 4.33381 29.0414 2.98338 26.7516 2.06205C24.4619 1.14071 22.0078 0.666504 19.5294 0.666504V0.666504ZM19.5294 33.6665C16.5433 33.6665 13.6243 32.8063 11.1414 31.1947C8.65854 29.5831 6.72338 27.2925 5.58065 24.6125C4.43791 21.9325 4.13892 18.9836 4.72148 16.1385C5.30404 13.2935 6.74199 10.6801 8.85349 8.62894C10.965 6.57777 13.6552 5.1809 16.5839 4.61499C19.5127 4.04907 22.5484 4.33952 25.3072 5.4496C28.066 6.55969 30.424 8.43955 32.083 10.8515C33.742 13.2634 34.6275 16.099 34.6275 18.9998C34.6275 22.8897 33.0368 26.6202 30.2053 29.3707C27.3739 32.1213 23.5337 33.6665 19.5294 33.6665V33.6665Z" fill="#FF8C00"/>
</svg>

<svg width="39" height="38" fill="none" xmlns="http://www.w3.org/2000/svg"><path d="M19.53 9.833c-.501 0-.981.193-1.335.537-.354.344-.553.81-.553 1.296V19c0 .486.199.952.553 1.296.354.344.834.537 1.334.537.5 0 .981-.193 1.335-.537.354-.344.553-.81.553-1.296v-7.334c0-.486-.2-.952-.553-1.296a1.916 1.916 0 00-1.335-.537zm1.736 15.804a1.376 1.376 0 00-.17-.33l-.227-.275a1.906 1.906 0 00-.968-.496 1.939 1.939 0 00-1.089.11 2.19 2.19 0 00-.623.386 1.83 1.83 0 00-.407.597 1.785 1.785 0 00-.14.704c.003.24.054.476.151.697.085.227.22.434.396.605.176.171.39.302.623.385a1.818 1.818 0 001.435 0 1.664 1.664 0 001.019-.99c.096-.22.148-.457.15-.697a2.44 2.44 0 000-.366 1.16 1.16 0 00-.15-.33zM19.529.667a19.27 19.27 0 00-10.485 3.09c-3.103 2.014-5.522 4.877-6.95 8.227A17.847 17.847 0 001.02 22.576a18.178 18.178 0 005.165 9.387 19.051 19.051 0 009.663 5.018c3.66.707 7.455.344 10.904-1.043 3.448-1.388 6.396-3.738 8.47-6.753A17.963 17.963 0 0038.401 19a17.88 17.88 0 00-1.437-7.016 18.308 18.308 0 00-4.09-5.948 18.918 18.918 0 00-6.123-3.974A19.355 19.355 0 0019.529.667zm0 33c-2.986 0-5.905-.86-8.388-2.472a14.767 14.767 0 01-5.56-6.582 14.278 14.278 0 01-.86-8.474 14.542 14.542 0 014.132-7.51 15.24 15.24 0 017.73-4.014 15.511 15.511 0 018.724.835 15.012 15.012 0 016.776 5.401A14.37 14.37 0 0134.627 19c0 3.89-1.59 7.62-4.422 10.37-2.831 2.751-6.671 4.296-10.676 4.296z" fill="#FF8C00"/></svg>
